app/img/icons/ic--cinema.svg

<svg xmlns="http://www.w3.org/2000/svg" preserveAspectRatio="xMidYMid" width="23.91" height="29.937" viewBox="0 0 23.91 29.937"><defs><style>.cls-1{fill:#fff;fill-rule:evenodd}</style></defs><path d="M6.505 19.905h12.246c.322 0 .589-.294.589-.686 0-.376-.267-.695-.589-.695H6.505c-.323 0-.583.319-.583.695 0 .392.26.686.583.686zm0 4.465h12.246c.322 0 .589-.302.589-.687 0-.393-.267-.703-.589-.703H6.505c-.323 0-.583.31-.583.703 0 .385.26.687.583.687zm16.428-11.399H6.54l15.776-5.617c.511-.189.813-.826.66-1.431L21.628.788c-.162-.605-.702-.941-1.222-.752L.701 7.019c-.519.196-.813.85-.66 1.455l1.348 5.119.021.082c-.035.139-.077.294-.077.441v14.653c0 .655.442 1.161.996 1.161h20.604c.54 0 .982-.506.982-1.161V14.116c0-.646-.442-1.145-.982-1.145zm-4.351-9.902l1.46-.515.758 2.944-2.906 1.03.688-3.459zm-4.378 1.554l3.073-1.071-.695 3.45-3.053 1.08.675-3.459zM9.832 6.177l3.066-1.088-.681 3.459L9.15 9.635l.682-3.458zM5.46 7.738l3.066-1.079-.688 3.45-3.066 1.08.688-3.451zM2.217 8.891l1.937-.695-.688 3.468-.491.171-.758-2.944zm19.719 18.718H3.319V15.261h18.617v12.348z" class="cls-1"/></svg>

<svg xmlns="http://www.w3.org/2000/svg" xmlns:xlink="http://www.w3.org/1999/xlink" preserveAspectRatio="xMidYMid" width="23.91" height="29.937" viewBox="0 0 23.91 29.937">
  <defs>
    <style>
      .cls-1 {
        fill: #fff;
        fill-rule: evenodd;
      }
    </style>
  </defs>
  <path d="M6.505,19.905 L18.751,19.905 C19.073,19.905 19.340,19.611 19.340,19.219 C19.340,18.843 19.073,18.524 18.751,18.524 L6.505,18.524 C6.182,18.524 5.922,18.843 5.922,19.219 C5.922,19.611 6.182,19.905 6.505,19.905 L6.505,19.905 ZM6.505,24.370 L6.505,24.370 L18.751,24.370 C19.073,24.370 19.340,24.068 19.340,23.683 C19.340,23.290 19.073,22.980 18.751,22.980 L6.505,22.980 C6.182,22.980 5.922,23.290 5.922,23.683 C5.922,24.068 6.182,24.370 6.505,24.370 L6.505,24.370 ZM22.933,12.971 L22.933,12.971 L6.540,12.971 L22.316,7.354 C22.827,7.165 23.129,6.528 22.976,5.923 L21.628,0.788 C21.466,0.183 20.926,-0.153 20.406,0.036 L0.701,7.019 C0.182,7.215 -0.112,7.869 0.041,8.474 L1.389,13.593 L1.410,13.675 C1.375,13.814 1.333,13.969 1.333,14.116 L1.333,28.769 C1.333,29.424 1.775,29.930 2.329,29.930 L22.933,29.930 C23.473,29.930 23.915,29.424 23.915,28.769 L23.915,14.116 C23.915,13.470 23.473,12.971 22.933,12.971 L22.933,12.971 ZM18.582,3.069 L18.582,3.069 L20.042,2.554 L20.800,5.498 L17.894,6.528 L18.582,3.069 L18.582,3.069 ZM14.204,4.623 L14.204,4.623 L17.277,3.552 L16.582,7.002 L13.529,8.082 L14.204,4.623 L14.204,4.623 ZM9.832,6.177 L9.832,6.177 L12.898,5.089 L12.217,8.548 L9.150,9.635 L9.832,6.177 L9.832,6.177 ZM5.460,7.738 L5.460,7.738 L8.526,6.659 L7.838,10.109 L4.772,11.189 L5.460,7.738 L5.460,7.738 ZM2.217,8.891 L2.217,8.891 L4.154,8.196 L3.466,11.664 L2.975,11.835 L2.217,8.891 L2.217,8.891 ZM21.936,27.609 L21.936,27.609 L3.319,27.609 L3.319,15.261 L21.936,15.261 L21.936,27.609 L21.936,27.609 Z" class="cls-1"/>
</svg>
